packages/icons/src/cet-agent-tokens-settings.svg

<svg fill="none" viewBox="0 0 32 32" xmlns="http://www.w3.org/2000/svg" xmlns:xlink="http://www.w3.org/1999/xlink"><clipPath id="a"><path d="m0 .654297h32v32h-32z"/></clipPath><g clip-path="url(#a)"><path d="m24.0166 12.8046c-.5407.5545-1.4286.5657-1.9831.025-.5544-.5407-.5656-1.4285-.0249-1.983s1.4285-.5657 1.983-.025.5657 1.4285.025 1.983z" stroke="#0278d5" stroke-linecap="round" stroke-linejoin="round"/><path clip-rule="evenodd" d="m10.0816 21.6592c0-.2761-.22385-.5-.49995-.5-.27615 0-.5.2239-.5.5v1.1328l-.98-.5658c-.23915-.1381-.54494-.0561-.68301.183-.13808.2391-.05614.5449.18301.683l.98205.567-.98205.567c-.23915.1381-.32109.4439-.18301.683.13807.2391.44386.3211.68301.183l.98-.5658v1.1328c0 .2761.22385.5.5.5.2761 0 .49995-.2239.49995-.5v-1.1352l.9841.5682c.2391.1381.5449.0561.683-.183s.0561-.5449-.183-.683l-.9821-.567.9821-.567c.2391-.1381.3211-.4439.183-.683s-.4439-.3211-.683-.183l-.9841.5682zm5.9641-.5c.2761 0 .5.2239.5.5v1.1352l.9841-.5682c.2392-.1381.545-.0561.683.183.1381.2391.0562.5449-.183.683l-.982.567.982.567c.2392.1381.3211.4439.183.683-.138.2391-.4438.3211-.683.183l-.9841-.5682v1.1352c0 .2761-.2239.5-.5.5s-.5-.2239-.5-.5v-1.1328l-.98.5658c-.2391.1381-.5449.0561-.683-.183s-.0561-.5449.183-.683l.9821-.567-.9821-.567c-.2391-.1381-.3211-.4439-.183-.683s.4439-.3211.683-.183l.98.5658v-1.1328c0-.2761.2239-.5.5-.5zm6.9641.5c0-.2761-.2239-.5-.5-.5s-.5.2239-.5.5v1.1328l-.98-.5658c-.2391-.1381-.5449-.0561-.683.183s-.0561.5449.183.683l.9821.567-.9821.567c-.2391.1381-.3211.4439-.183.683s.4439.3211.683.183l.98-.5658v1.1328c0 .2761.2239.5.5.5s.5-.2239.5-.5v-1.1352l.9841.5682c.2392.1381.5449.0561.683-.183s.0562-.5449-.183-.683l-.982-.567.982-.567c.2392-.1381.3211-.4439.183-.683s-.4438-.3211-.683-.183l-.9841.5682z" fill="#0278d5" fill-rule="evenodd"/></g></svg>

<svg width="32" height="33" viewBox="0 0 32 33" fill="none" xmlns="http://www.w3.org/2000/svg">
<g clip-path="url(#clip0_9190_125691)">
<path d="M24.0166 12.8046C23.4759 13.3591 22.588 13.3703 22.0335 12.8296C21.4791 12.2889 21.4679 11.4011 22.0086 10.8466C22.5493 10.2921 23.4371 10.2809 23.9916 10.8216C24.5461 11.3623 24.5573 12.2501 24.0166 12.8046Z" stroke="#0278D5" stroke-linecap="round" stroke-linejoin="round"/>
<path fill-rule="evenodd" clip-rule="evenodd" d="M10.0816 21.6592C10.0816 21.3831 9.85775 21.1592 9.58165 21.1592C9.3055 21.1592 9.08165 21.3831 9.08165 21.6592V22.792L8.10165 22.2262C7.8625 22.0881 7.55671 22.1701 7.41864 22.4092C7.28056 22.6483 7.3625 22.9541 7.60165 23.0922L8.5837 23.6592L7.60165 24.2262C7.3625 24.3643 7.28056 24.6701 7.41864 24.9092C7.55671 25.1483 7.8625 25.2303 8.10165 25.0922L9.08165 24.5264V25.6592C9.08165 25.9353 9.3055 26.1592 9.58165 26.1592C9.85775 26.1592 10.0816 25.9353 10.0816 25.6592V24.524L11.0657 25.0922C11.3048 25.2303 11.6106 25.1483 11.7487 24.9092C11.8868 24.6701 11.8048 24.3643 11.5657 24.2262L10.5836 23.6592L11.5657 23.0922C11.8048 22.9541 11.8868 22.6483 11.7487 22.4092C11.6106 22.1701 11.3048 22.0881 11.0657 22.2262L10.0816 22.7944V21.6592ZM16.0457 21.1592C16.3218 21.1592 16.5457 21.3831 16.5457 21.6592V22.7944L17.5298 22.2262C17.769 22.0881 18.0748 22.1701 18.2128 22.4092C18.3509 22.6483 18.269 22.9541 18.0298 23.0922L17.0478 23.6592L18.0298 24.2262C18.269 24.3643 18.3509 24.6701 18.2128 24.9092C18.0748 25.1483 17.769 25.2303 17.5298 25.0922L16.5457 24.524V25.6592C16.5457 25.9353 16.3218 26.1592 16.0457 26.1592C15.7696 26.1592 15.5457 25.9353 15.5457 25.6592V24.5264L14.5657 25.0922C14.3266 25.2303 14.0208 25.1483 13.8827 24.9092C13.7446 24.6701 13.8266 24.3643 14.0657 24.2262L15.0478 23.6592L14.0657 23.0922C13.8266 22.9541 13.7446 22.6483 13.8827 22.4092C14.0208 22.1701 14.3266 22.0881 14.5657 22.2262L15.5457 22.792V21.6592C15.5457 21.3831 15.7696 21.1592 16.0457 21.1592ZM23.0098 21.6592C23.0098 21.3831 22.7859 21.1592 22.5098 21.1592C22.2337 21.1592 22.0098 21.3831 22.0098 21.6592V22.792L21.0298 22.2262C20.7907 22.0881 20.4849 22.1701 20.3468 22.4092C20.2087 22.6483 20.2907 22.9541 20.5298 23.0922L21.5119 23.6592L20.5298 24.2262C20.2907 24.3643 20.2087 24.6701 20.3468 24.9092C20.4849 25.1483 20.7907 25.2303 21.0298 25.0922L22.0098 24.5264V25.6592C22.0098 25.9353 22.2337 26.1592 22.5098 26.1592C22.7859 26.1592 23.0098 25.9353 23.0098 25.6592V24.524L23.9939 25.0922C24.2331 25.2303 24.5388 25.1483 24.6769 24.9092C24.815 24.6701 24.7331 24.3643 24.4939 24.2262L23.5119 23.6592L24.4939 23.0922C24.7331 22.9541 24.815 22.6483 24.6769 22.4092C24.5388 22.1701 24.2331 22.0881 23.9939 22.2262L23.0098 22.7944V21.6592Z" fill="#0278D5"/>
</g>
<defs>
<clipPath id="clip0_9190_125691">
<rect width="32" height="32" fill="white" transform="translate(0 0.654297)"/>
</clipPath>
</defs>
</svg>
